X:17
T:B017-  Aye, Marry, and thank you too
S:via BBBM, from 'Robin Hood', 1730
Q:1/4=120
L:1/4
M:6/4
K:Gm
B3 {A}G3/2 A/2 B|cA2^F2d|(eg)f(d/2e/2)c2|(B3B2)d|\
(eg)f{d}c2d|cA2^F3|B3 {A}G3/2d/2 (d/2e/2)|cA2G3|]

